X: 52
T: REELS: Boys on the Hilltop Set
T: Boy on the Hilltop
C: C: Trad.; S: Various
C: Set Leaders: Alexey, Anton
Z: Anton Zille ed.; Thady Quill / JACKB at The Session
N: https://thesession.org/members/26966/sets/99333
R: Reel
M: 4/4
L: 1/8
Q: 1/2=100
K: Ador
A3c B2AG|EGGF G2AG|EA~A2 BABd|egdB BAdB|
A3c BGAG|EG~G2 G2AB|c2ec B2GB|dBGA BAAG||
A2 B/c/d egdB|GBdB defg|a2ed egdB|GBdB BAA2|
aged egdB|GB~B2 defg|afge fdef|gbaf gedB||
T: Boys of Ballinahinch
K: Dmaj
ag|f2df edBA|B/c/d ef g2 ag|f2df edBc|dBAF EF D2|
fAdf edBA|B/c/d ef g2 ag|f2df edBc|dBAF EF D2||
faaf d3e|faaf g3e|faab afdf|gfed B2Ae|
faaf dcde|faaf g3a|bgaf gfed|B/c/d ef g2||
T: Boy in the Gap
K: Dmaj
|:D2FA dedc|A2GE =cEGE|D2FA dedc|A2GE EDD2:||
|:~f3g fedf|~e3f edcB|ABcd edcd|eaag eaag|
~f3g fedf|egfd edcB|A2 B/c/d e2dc|A2GE EDD2:||
|:df~f2 df~f2|ce~e2 gece|dffe ~f3g|a2ge edde|
f2de fdAF|G2BG EFGE|D2FA dedc|1 A2GE EDD2:|2 A2GE =cEGE||

